img/support/link.svg

<svg width="14" height="15" viewBox="0 0 14 15" fill="none" xmlns="http://www.w3.org/2000/svg">
<g opacity="0.6">
<path d="M7.77778 0.5L10.339 3.06122L4.89456 8.50567L5.99433 9.60544L11.4388 4.161L14 6.72222V0.5H7.77778Z" fill="white"/>
<path d="M12.4444 12.9444H1.55556V2.05556H7L5.44444 0.5H1.55556C0.697667 0.5 0 1.19767 0 2.05556V12.9444C0 13.8023 0.697667 14.5 1.55556 14.5H12.4444C13.3023 14.5 14 13.8023 14 12.9444V9.05556L12.4444 7.5V12.9444Z" fill="white"/>
</g>
</svg>

<svg width="14" height="15" fill="none" xmlns="http://www.w3.org/2000/svg"><g opacity=".6" fill="#fff"><path d="M7.778.5l2.561 2.561-5.444 5.445 1.1 1.1 5.444-5.445L14 6.722V.5H7.778z"/><path d="M12.444 12.944H1.556V2.056H7L5.444.5H1.556C.698.5 0 1.198 0 2.056v10.888c0 .858.698 1.556 1.556 1.556h10.888c.858 0 1.556-.698 1.556-1.556V9.056L12.444 7.5v5.444z"/></g></svg>
